!!!COM:	Bach, Johann Sebastian
!!!CDT:	1685/02/21/-1750/07/28/
!!!OTL@@DE:	Ich dank dir, Gott, f&uuml;r all Wohlat
!!!SCT:	BWV 346
!!!PC#:	223
!!!AGN:	chorale
**kern	**kern	**kern	**kern
*ICvox	*ICvox	*ICvox	*ICvox
*Ibass	*Itenor	*Ialto	*Isoprn
*I"Bass	*I"Tenor	*I"Alto	*I"Soprano
*	*oclefC4	*oclefC3	*oclefC1
*clefF4	*clefGv2	*clefG2	*clefG2
*k[]	*k[]	*k[]	*k[]
*C:	*C:	*C:	*C:
*M4/4	*M4/4	*M4/4	*M4/4
*met(c)	*met(c)	*met(c)	*met(c)
*MM100	*MM100	*MM100	*MM100
4C	8EL	4c	4g
.	8FJ	.	.
=1	=1	=1	=1
4BB-	4G	4c	4e
4AA	4A	4c	4f#
4GG;	4D;	4B;	4g;
4BB	4G	[4d	4g
=2	=2	=2	=2
4C	[4G	8d]	4e
.	.	4c	.
4GG	8.GL]	.	4d
.	.	8B	.
.	16FJk	.	.
4CC;	4E;	4G;	4c;
4C	4E	4G	4c
=3	=3	=3	=3
4BB	4G	4d	4g
8CL	4c	[4e	4g
8BBJ	.	.	.
4AA	4c	8eL]	4a
.	.	8f#J	.
4GG	4d	[4g	4b
=4	=4	=4	=4
4E	4c	8gL]	4cc
.	.	8f#J	.
4D	4d	[2g	4b
4C	4e	.	4a
4D	8.dL	8gL]	4a
.	.	8f#J	.
.	16cJk	.	.
=5	=5	=5	=5
2GG;	2B;	2d;	2g;
4r	4ry	4ry	4r
4E	4c	[4e	4g
=6	=6	=6	=6
4F	4c	8eL]	4a
.	.	[8dJ	.
4GG#	4B	8dL]	4b
.	.	8eJ	.
4AA;	4A;	4e;	4cc;
4C	4E	[4c	4g
=7	=7	=7	=7
4.F	4F	8cL]	4a
.	.	8BJ	.
.	4G	8cL	4g
8E	.	8c#J	.
8DL	4A	8dL	4f
8E	.	8c#J	.
8F	4A	[4d	4f
8DJ	.	.	.
=8	=8	=8	=8
2A;	2A;	4d]	2e;
.	.	4c#;	.
4r	4ry	4ry	4r
4E	4cnX	[4g	4ccnX
=9	=9	=9	=9
8FL	4c	8gL]	4a
8EJ	.	16fL	.
.	.	16eJJ	.
4D	4d	4f	4b
4C;	4G;	4e;	4cc;
[4D	8dL	4f	4a
.	8cJ	.	.
=10	=10	=10	=10
8DL]	4B-	[4e	4g
8C#J	.	.	.
4D	4A	8eL]	4f
.	.	[8dJ	.
4AA;	4A;	8dL]	4e;
.	.	8c#;J	.
4BB	[4G	4d	4g
=11	=11	=11	=11
4C#	8GL]	4e	4e
.	[8AJ	.	.
4D#	8AL]	4B	4f#
.	16GL	.	.
.	16F#JJ	.	.
4E;	4E;	4B;	4g;
8EL	8eL	8gL	4cc
8F#J	8dJ	[8aJ	.
=12	=12	=12	=12
4G	4d	8a]	4b
.	.	4g	.
4D	8.dL	.	4a
.	.	8f#	.
.	16cJk	.	.
4GG;	4B;	4d;	4g;
4BB	4G	4d	4g
=13	=13	=13	=13
8CL	4G	4c	8eL
8D	.	.	8fnXJ
8E	8cL	4c	4g
8CJ	8B-J	.	.
4F	8.AL	8c	4a
.	.	4f	.
.	16BJk	.	.
[4C	8.cL	.	4g
.	.	8e	.
.	16B-Jk	.	.
=14	=14	=14	=14
8CL]	8AL	4.d	4f
8BBnXJ	8GJ	.	.
4C	4G	.	4e
.	.	[8c	.
4FF	8AL	8cL]	4d
.	8DJ	16BL	.
.	.	16AJJ	.
4GG	8GL	4B	4d
.	8FJ	.	.
=15	=15	=15	=15
1CC;	1E;	1G;	1c;
==	==	==	==
*-	*-	*-	*-
!!!YOR1: 371 vierstimmige Choralges&auml;nge von Johann Sebastian Bach, 
!!!YOR2: 4th ed. by Alfred D&ouml;rffel (Leipzig: Breitkopf und H&auml;rtel, 
!!!YOR2: c.1875). 178 pp. Plate "V.A.10".  reprint: J.S. Bach, 371 Four-Part 
!!!YOR4: Chorales (New York: Associated Music Publishers, Inc., c.1940).
!!!SMS: B&H, 4th ed, Alfred D&ouml;rffel, c.1875, plate V.A.10
!!!EED:  Craig Stuart Sapp
!!!EEV:  2009/05/22
